X: 1
T: Boys Of Portaferry, The
M: 4/4
L: 1/8
R: reel
K: Gmaj
BA|:G2 BG AcBA|GABG GEDE|GABG ABce|dBgB c2 BA|
|G2 BG AcBA|(3GGG BG GEDE|GABG ABce|1 dBAc BGGD:|2 dBAc BGGA||
|(3Bcd gd edgd|Bdgd e2 dc|(3Bcd gd edef|gedB c2 BA|
|(3Bcd gd edgd|Bdgd e2 dc|Bdgd (3efg fa|gedB c2 BA:||
